logo/vagrant-icon.svg

<?xml version="1.0" encoding="UTF-8"?>
<svg width="256px" height="266px" viewBox="0 0 256 266" version="1.1" xmlns="http://www.w3.org/2000/svg" xmlns:xlink="http://www.w3.org/1999/xlink" preserveAspectRatio="xMidYMid">
    <g>
        <path d="M221.101749,0 L255.996276,20.4099019 L197.80928,54.2496961 L197.809,54.29 L255.996276,20.4099019 L255.996276,44.663227 L177.863239,236.260077 L127.976,265.06 L127.976049,265.063662 L127.973,265.061 L127.970527,265.063662 L127.97,265.06 L78.5637649,236.480963 L0,45.4142407 L0,20.4099019 L34.9000488,0 L93.1312219,34.1490351 L92.932,34.263 L93.0870447,34.3257442 L93.0870447,57.3862827 L127.976049,138.981713 L127.976,166.242 L127.981571,166.239093 L127.981571,138.981713 L162.914753,57.3862827 L162.914753,34.1048578 L162.95893,34.1048578 L221.101749,0 Z M71.579,46.548 L58.192518,54.2496961 L58.192,54.29 L71.579,46.548 Z" fill="#1159CC"></path>
        <polygon fill="#127EFF" points="221.101749 4.904663e-15 162.95893 34.1048578 162.914753 34.1048578 162.914753 57.3862827 127.981571 138.981713 127.981571 166.239093 104.733279 179.75734 58.192518 74.7921298 58.192518 54.2496961 93.1312219 34.1490351 34.9000488 0 0 20.4099019 0 45.4142407 78.5637649 236.480963 127.976049 265.063662 127.976049 193.275587 151.268518 179.75734 150.959277 179.580631 197.80928 74.7921298 197.80928 54.2496961 255.996276 20.4099019"></polygon>
    </g>
</svg>

<svg viewBox="0 0 256 266" xmlns="http://www.w3.org/2000/svg"><path fill="#1159CC" d="M221.1 0l34.89 20.4 -58.19 33.83 -.01.04 58.18-33.89v24.25l-78.14 191.59 -49.89 28.79 0 0 -.01-.01 -.01 0 -.01-.01 -49.41-28.58L-.07 45.34V20.33L34.83-.08l58.23 34.14 -.2.11 .15.06v23.06l34.88 81.59 -.01 27.26 0-.01v-27.26l34.93-81.6V33.98h.04L220.99-.13ZM71.57 46.548l-13.39 7.7 -.01.04 13.38-7.75Z"/><path fill="#127EFF" d="M221.1 0l-58.15 34.1 -.05 0 0 23.28 -34.94 81.59 0 27.25 -23.25 13.51L58.16 74.76l0-20.55L93.09 34.1 34.85-.05 -.06 20.35l0 25L78.5 236.41l49.41 28.58 0-71.79 23.29-13.52 -.31-.18 46.85-104.79 0-20.55 58.18-33.84Z"/></svg>
